Sources/FrostedUI/Resources/Icons.xcassets/book24.imageset/book-24.svg

<svg width="24" height="24" viewBox="0 0 24 24" fill="none" xmlns="http://www.w3.org/2000/svg" data-fui-icon="true">
  <path
    d="M17.5703 1.14551C19.989 1.10956 22.6287 1.96918 23.792 3.99902C23.9444 4.26516 24 4.55141 24 4.80859V21.6104C23.9998 22.099 23.657 22.4091 23.3457 22.5176C23.0393 22.6243 22.6091 22.5955 22.3008 22.2686C21.2074 21.1083 19.215 20.4916 17.1924 20.5693C15.1569 20.6476 13.3965 21.4121 12.6387 22.6436C12.5021 22.8652 12.2603 23 12 23C11.7397 23 11.4979 22.8652 11.3613 22.6436C10.6035 21.4121 8.8431 20.6476 6.80762 20.5693C4.78498 20.4916 2.79264 21.1083 1.69922 22.2686C1.3909 22.5955 0.960663 22.6243 0.654297 22.5176C0.343001 22.4091 0.000243971 22.099 0 21.6104V4.80762C0 4.5495 0.0559753 4.26448 0.208008 3.99902C1.37128 1.96917 4.01103 1.10956 6.42969 1.14551C8.47208 1.17594 10.6622 1.84796 12 3.30762C13.3378 1.84795 15.5279 1.17594 17.5703 1.14551ZM6.40723 2.64551C4.22832 2.61312 2.2778 3.40494 1.50977 4.74512H1.50879L1.50781 4.74707C1.50705 4.74916 1.50602 4.75316 1.50488 4.75781C1.50242 4.76816 1.5 4.78536 1.5 4.80762V20.4756C2.98523 19.4401 4.99329 18.9984 6.86523 19.0703C8.42314 19.1302 10.0293 19.5531 11.25 20.4092V4.78418C10.4024 3.462 8.49769 2.67663 6.40723 2.64551ZM17.5928 2.64551C15.5023 2.67662 13.5976 3.46198 12.75 4.78418V20.4092C13.9707 19.5531 15.5769 19.1302 17.1348 19.0703C19.0067 18.9984 21.0148 19.4401 22.5 20.4756V4.80859C22.5 4.76815 22.4918 4.74868 22.4902 4.74512C21.7222 3.40494 19.7717 2.61312 17.5928 2.64551Z"
    fill="currentColor"
  />
</svg>

<svg xmlns="http://www.w3.org/2000/svg" width="24" height="24" fill="none" data-fui-icon="true" viewBox="0 0 24 24"><path fill="currentColor" d="M17.57 1.146c2.419-.036 5.059.823 6.222 2.853.152.266.208.552.208.81V21.61a.96.96 0 0 1-.654.908.99.99 0 0 1-1.045-.25c-1.094-1.16-3.086-1.776-5.109-1.699-2.035.079-3.796.843-4.553 2.075a.75.75 0 0 1-1.278 0c-.758-1.232-2.518-1.996-4.553-2.075-2.023-.077-4.015.54-5.109 1.7a.99.99 0 0 1-1.045.249A.96.96 0 0 1 0 21.61V4.808c0-.258.056-.544.208-.809 1.163-2.03 3.803-2.89 6.222-2.853 2.042.03 4.232.702 5.57 2.162 1.338-1.46 3.528-2.132 5.57-2.162m-11.163 1.5c-2.179-.033-4.13.759-4.897 2.1h-.001l-.001.001-.003.01a.2.2 0 0 0-.005.05v15.669c1.485-1.036 3.493-1.478 5.365-1.406 1.558.06 3.164.483 4.385 1.34V4.783c-.848-1.322-2.752-2.107-4.843-2.138m11.186 0c-2.09.03-3.995.816-4.843 2.138V20.41c1.22-.856 2.827-1.279 4.385-1.339 1.872-.072 3.88.37 5.365 1.406V4.809c0-.04-.008-.06-.01-.064-.768-1.34-2.718-2.132-4.897-2.1"/></svg>
